dist/images/icons/icon-cart.svg

<svg width="21" height="20" viewBox="0 0 21 20" fill="none" xmlns="http://www.w3.org/2000/svg">
<path d="M1 1.02979L3.08 1.38561L4.04301 12.7255C4.12001 13.6516 4.90301 14.3622 5.84301 14.3593H16.752C17.649 14.3613 18.41 13.7089 18.537 12.8312L19.486 6.34932C19.592 5.62483 19.083 4.95272 18.351 4.84795C18.287 4.83906 3.414 4.83412 3.414 4.83412" stroke="black" stroke-width="1.5" stroke-linecap="round" stroke-linejoin="round"/>
<path d="M12.375 8.48737H15.1479" stroke="black" stroke-width="1.5" stroke-linecap="round" stroke-linejoin="round"/>
<path fill-rule="evenodd" clip-rule="evenodd" d="M5.4043 17.7856C5.70527 17.7856 5.94824 18.0269 5.94824 18.3236C5.94824 18.6213 5.70527 18.8625 5.4043 18.8625C5.10333 18.8625 4.86035 18.6213 4.86035 18.3236C4.86035 18.0269 5.10333 17.7856 5.4043 17.7856Z" fill="black" stroke="black" stroke-width="1.5" stroke-linecap="round" stroke-linejoin="round"/>
<path fill-rule="evenodd" clip-rule="evenodd" d="M16.6846 17.7856C16.9856 17.7856 17.2296 18.0269 17.2296 18.3236C17.2296 18.6213 16.9856 18.8625 16.6846 18.8625C16.3836 18.8625 16.1406 18.6213 16.1406 18.3236C16.1406 18.0269 16.3836 17.7856 16.6846 17.7856Z" fill="black" stroke="black" stroke-width="1.5" stroke-linecap="round" stroke-linejoin="round"/>
</svg>

<svg width="21" height="20" fill="none" xmlns="http://www.w3.org/2000/svg"><path d="M1 1.03l2.08.356.963 11.34a1.79 1.79 0 001.8 1.633h10.909a1.794 1.794 0 001.785-1.528l.949-6.482a1.328 1.328 0 00-1.135-1.501c-.064-.009-14.937-.014-14.937-.014m8.961 3.653h2.773" stroke="#000" stroke-width="1.5" stroke-linecap="round" stroke-linejoin="round"/><path fill-rule="evenodd" clip-rule="evenodd" d="M5.404 17.786a.54.54 0 01.544.538.541.541 0 01-.544.538.541.541 0 01-.544-.538.54.54 0 01.544-.538zm11.281 0c.3 0 .545.24.545.538a.542.542 0 01-.545.538.541.541 0 01-.544-.538.54.54 0 01.544-.538z" fill="#000" stroke="#000" stroke-width="1.5" stroke-linecap="round" stroke-linejoin="round"/></svg>
